Origami/64x64/apps/dino.svg

<svg width="64" height="64" version="1" xmlns="http://www.w3.org/2000/svg">
 <path d="m57.790272 59.868s2.742-4.981622 2.117118-6.047108c-0.549348-0.936596-5.592356-0.707108-5.592356-0.707108s4.26911-5.177338 3.592966-6.330122c-0.665682-1.134918-7.908-1.772324-7.908-1.772324s7.905492-2.64279 8.132-3.942c0.237694-1.361604-7.080266-6.282086-7.080266-6.282086s5.433974-9.058964 4.924266-10.267684c-0.639792-1.516768-8.375404-1.50846-8.375404-1.50846s3.42556-10.972595 2.014808-11.86577c-1.185324-0.750137-14.313482 3.321921-14.313482 3.321921s-3.933816-9.4559209-6.124186-9.4559209c-2.20421 0-6.860796 9.4696119-6.860796 9.4696119s-7.930522-6.2731185-9.361759-5.459612c-1.26533 0.719104-0.694362 10.992734-0.694362 10.992734z" style="fill-rule:evenodd;opacity:.2"/>
 <path d="m28.191406 19.398613c-4.234238 0-8.084722 0.254392-11.371094 1.01953-7.1764451 0.415028-12.789062 13.97667-12.820312 15.972656 0.0052 3.242964 0.8402638 6.407496 2.3945312 9.074218 3.8816449 8.008546 12.081149 13.535158 21.578125 13.535158 4.43184 0 8.570818-1.223874 12.132812-3.320314 6.845984 2.430798 18.073064 6.223978 18.929688 5.125 0.987824-1.267436-5.851332-11.810248-8.960938-16.46875 1.207358-2.862026 1.875-6.007214 1.875-9.308594 0-13.240366-10.517444-15.628904-23.757812-15.628904z" style="opacity:.2"/>
 <path d="m57.790272 58.868663s2.742-4.981622 2.117118-6.047108c-0.549348-0.936596-5.592356-0.707108-5.592356-0.707108s4.26911-5.177338 3.592966-6.330122c-0.665682-1.134918-7.908-1.772324-7.908-1.772324s7.905492-2.64279 8.132-3.942c0.237694-1.361604-7.080266-6.282086-7.080266-6.282086s5.433974-9.058964 4.924266-10.267684c-0.639792-1.516768-8.375404-1.50846-8.375404-1.50846s3.42556-10.972595 2.014808-11.86577c-1.185324-0.7501367-14.313482 3.321921-14.313482 3.321921s-3.933816-9.4559209-6.124186-9.4559209c-2.20421 0-6.860796 9.4696119-6.860796 9.4696119s-7.930522-6.2731185-9.361759-5.4596121c-1.26533 0.7191038-0.694362 10.992734-0.694362 10.992734z" style="fill-rule:evenodd;fill:#455a64"/>
 <path d="m29.177734 4.0117188c-2.20421 0-6.861328 9.4707032-6.861328 9.4707032s-7.930091-6.274444-9.361328-5.4609376c-0.684674 0.3891095-0.821749 3.5166696-0.8125 6.3593746 0.03085-2.52384 0.21244-5.0183528 0.8125-5.3593746 1.431237-0.8135064 9.361328 5.4589846 9.361328 5.4589846s4.657118-9.4687502 6.861328-9.4687502c2.19037 0 6.125 9.4550782 6.125 9.4550782s13.127176-4.07045 14.3125-3.320313c0.173494 0.109843 0.271882 0.374431 0.314454 0.75 0.058009-0.899313-0.014407-1.560034-0.314454-1.75-1.185324-0.7501363-14.3125 3.322266-14.3125 3.322266s-3.93463-9.4570312-6.125-9.4570312zm18.71875 18.005859c-0.117117 0.39124-0.294922 0.994141-0.294922 0.994141s7.257732-0.004598 8.279297 1.378906c0.115112-0.397378 0.163344-0.710691 0.095703-0.871094-0.601022-1.424857-7.250548-1.497609-8.080078-1.501953zm3.572266 12.058594c-0.14545 0.246405-0.417969 0.710937-0.417969 0.710937s5.640058 3.791618 6.855469 5.638672c0.117737-0.125449 0.207574-0.246555 0.226562-0.355469 0.215939-1.236979-5.560274-5.240392-6.664062-5.99414zm0.613281 10.179687c-1.145147 0.425558-2.082031 0.75586-2.082031 0.75586s6.964026 0.614769 7.849609 1.710937c0.13751-0.402658 0.177726-0.734387 0.058594-0.9375-0.438241-0.747155-3.630139-1.253304-5.826172-1.529297zm3.029297 7.837891c-0.454872 0.592809-0.796875 1.019531-0.796875 1.019531s5.044402-0.229565 5.59375 0.707031c0.001882 0.003209 0.002085 0.00844 0.003906 0.011719 0.0851-0.43052 0.116111-0.805125-0.003906-1.009765-0.412011-0.702447-3.352778-0.749157-4.796875-0.728516z" style="fill-rule:evenodd;fill:#ffffff;opacity:.1"/>
 <g transform="matrix(2 0 0 2 -1.3045501e-7 .01200092)">
  <path d="m 14.095703,9.1933594 c -2.117119,0 -4.042361,0.1271965 -5.6855468,0.5097656 C 4.8219335,9.9106394 2,17 2,17.689453 c 0.0026,1.621482 0.4201319,3.203748 1.1972656,4.537109 1.9408227,4.004272 6.0405744,6.767579 10.7890624,6.767579 6.620184,0 11.988281,-5.366145 11.988281,-11.986329 0,-6.620183 -5.258722,-7.8144526 -11.878906,-7.8144526 z" style="fill:#80cbc4"/>
  <path d="m24.237437 20.474579s5.912377 8.61138 5.280262 9.422421c-0.613835 0.787499-12.111773-3.51282-12.111773-3.51282z" style="fill-rule:evenodd;fill:#80cbc4"/>
 </g>
 <path d="m27.973806 10.054161c-13.240368 0-23.973806 10.733438-23.973806 23.973806 0 0.09022 0.01278 0.1772 0.01378 0.267172-0.00113 0.09452-0.01378 0.186148-0.01378 0.280942 0 1.263978 0.102138 2.504826 0.2947146 3.715612 0.061956 0.294078 0.162236 0.54474 0.2451366 0.815282 1.1688988 3.814708 4.2141458 5.348938 4.2141458 5.348938 0.7387904 0.596814 1.6581851 1.205364 2.7185371 1.806848h-0.08814s2.224113 11.849718 6.301938 11.74924c3.08412-0.07602 5.504248-6.123266 9.425364-6 3.917714 0.12318 5.507586 5.959284 9.406082 6 2.251464 0.02352 4.246276-2.85815 5.48222-6h1.128208c3.70676 3.450506 12.13326 6.692828 15.784516 7.88345 0.0499-0.02606 0.09058-0.05514 0.11844-0.0909 0.893726-1.146514-5.41012-11.564372-8.901408-16.63493 1.16455-2.818838 1.81786-5.90218 1.81786-9.141656 0-13.240368-10.733438-23.973806-23.973806-23.973806z" style="fill-rule:evenodd;fill:#009688"/>
 <circle cx="17" cy="28.012" r="3" style="fill-rule:evenodd;opacity:.2"/>
 <circle cx="17" cy="27.012" r="3" style="fill-rule:evenodd;fill:#ffffff"/>
 <path d="m27.974609 10.054688c-13.240368 0-23.974609 10.732288-23.974609 23.972656 0 0.09022 0.0126719 0.177606 0.0136719 0.267578-0.00113 0.09452-0.0136719 0.186456-0.0136719 0.28125 0 0.059199 0.0073656 0.116685 0.0078125 0.175781 0.148236-13.112938 10.818746-23.699219 23.966796-23.699219 13.076048 0 23.69908 10.471032 23.960938 23.484375 0.00362-0.170124 0.011719-0.338755 0.011719-0.509765 0-13.240368-10.732289-23.972656-23.972657-23.972656zm22.400391 33.480468c-0.080676 0.211893-0.159738 0.425738-0.246094 0.634766 3.009326 4.370582 8.098853 12.69979 8.876953 15.654297 0.007127-0.007097 0.01941-0.011855 0.025391-0.019531 0.874471-1.121813-5.126147-11.08941-8.65625-16.269532z" style="fill-rule:evenodd;fill:#ffffff;opacity:.1"/>
</svg>

<svg xmlns="http://www.w3.org/2000/svg" width="64" height="64" version="1">
 <path style="opacity:0.2;fill-rule:evenodd" d="m 57.790272,59.868 c 0,0 2.742,-4.981622 2.117118,-6.047108 -0.549348,-0.936596 -5.592356,-0.707108 -5.592356,-0.707108 0,0 4.26911,-5.177338 3.592966,-6.330122 C 57.242318,45.648744 50,45.011338 50,45.011338 c 0,0 7.905492,-2.64279 8.132,-3.942 0.237694,-1.361604 -7.080266,-6.282086 -7.080266,-6.282086 0,0 5.433974,-9.058964 4.924266,-10.267684 -0.639792,-1.516768 -8.375404,-1.50846 -8.375404,-1.50846 0,0 3.42556,-10.972595 2.014808,-11.86577 -1.185324,-0.750137 -14.313482,3.321921 -14.313482,3.321921 0,0 -3.933816,-9.4559209 -6.124186,-9.4559209 -2.20421,0 -6.860796,9.4696119 -6.860796,9.4696119 0,0 -7.930522,-6.2731185 -9.361759,-5.459612 -1.26533,0.719104 -0.694362,10.992734 -0.694362,10.992734 z"/>
 <path style="opacity:0.2" d="m 28.191406,19.398613 c -4.234238,0 -8.084722,0.254392 -11.371094,1.01953 -7.1764451,0.415028 -12.7890621,13.97667 -12.8203121,15.972656 0.0052,3.242964 0.8402638,6.407496 2.3945312,9.074218 3.8816449,8.008546 12.0811489,13.535158 21.5781249,13.535158 4.43184,0 8.570818,-1.223874 12.132812,-3.320314 6.845984,2.430798 18.073064,6.223978 18.929688,5.125 0.987824,-1.267436 -5.851332,-11.810248 -8.960938,-16.46875 1.207358,-2.862026 1.875,-6.007214 1.875,-9.308594 0,-13.240366 -10.517444,-15.628904 -23.757812,-15.628904 z"/>
 <path style="fill:#455a64;fill-rule:evenodd" d="m 57.790272,58.868663 c 0,0 2.742,-4.981622 2.117118,-6.047108 -0.549348,-0.936596 -5.592356,-0.707108 -5.592356,-0.707108 0,0 4.26911,-5.177338 3.592966,-6.330122 C 57.242318,44.649407 50,44.012001 50,44.012001 c 0,0 7.905492,-2.64279 8.132,-3.942 0.237694,-1.361604 -7.080266,-6.282086 -7.080266,-6.282086 0,0 5.433974,-9.058964 4.924266,-10.267684 -0.639792,-1.516768 -8.375404,-1.50846 -8.375404,-1.50846 0,0 3.42556,-10.972595 2.014808,-11.86577 -1.185324,-0.7501367 -14.313482,3.321921 -14.313482,3.321921 0,0 -3.933816,-9.4559209 -6.124186,-9.4559209 -2.20421,0 -6.860796,9.4696119 -6.860796,9.4696119 0,0 -7.930522,-6.2731185 -9.361759,-5.4596121 -1.26533,0.7191038 -0.694362,10.9927341 -0.694362,10.9927341 z"/>
 <path style="fill:#ffffff;fill-rule:evenodd;opacity:0.1" d="M 29.177734 4.0117188 C 26.973524 4.0117188 22.316406 13.482422 22.316406 13.482422 C 22.316406 13.482422 14.386315 7.207978 12.955078 8.0214844 C 12.270404 8.4105939 12.133329 11.538154 12.142578 14.380859 C 12.173428 11.857019 12.355018 9.3625062 12.955078 9.0214844 C 14.386315 8.207978 22.316406 14.480469 22.316406 14.480469 C 22.316406 14.480469 26.973524 5.0117188 29.177734 5.0117188 C 31.368104 5.0117188 35.302734 14.466797 35.302734 14.466797 C 35.302734 14.466797 48.42991 10.396347 49.615234 11.146484 C 49.788728 11.256327 49.887116 11.520915 49.929688 11.896484 C 49.987697 10.997171 49.915281 10.33645 49.615234 10.146484 C 48.42991 9.3963477 35.302734 13.46875 35.302734 13.46875 C 35.302734 13.46875 31.368104 4.0117188 29.177734 4.0117188 z M 47.896484 22.017578 C 47.779367 22.408818 47.601562 23.011719 47.601562 23.011719 C 47.601562 23.011719 54.859294 23.007121 55.880859 24.390625 C 55.995971 23.993247 56.044203 23.679934 55.976562 23.519531 C 55.37554 22.094674 48.726014 22.021922 47.896484 22.017578 z M 51.46875 34.076172 C 51.3233 34.322577 51.050781 34.787109 51.050781 34.787109 C 51.050781 34.787109 56.690839 38.578727 57.90625 40.425781 C 58.023987 40.300332 58.113824 40.179226 58.132812 40.070312 C 58.348751 38.833333 52.572538 34.82992 51.46875 34.076172 z M 52.082031 44.255859 C 50.936884 44.681417 50 45.011719 50 45.011719 C 50 45.011719 56.964026 45.626488 57.849609 46.722656 C 57.987119 46.319998 58.027335 45.988269 57.908203 45.785156 C 57.469962 45.038001 54.278064 44.531852 52.082031 44.255859 z M 55.111328 52.09375 C 54.656456 52.686559 54.314453 53.113281 54.314453 53.113281 C 54.314453 53.113281 59.358855 52.883716 59.908203 53.820312 C 59.910085 53.823521 59.910288 53.828752 59.912109 53.832031 C 59.997209 53.401511 60.02822 53.026906 59.908203 52.822266 C 59.496192 52.119819 56.555425 52.073109 55.111328 52.09375 z"/>
 <g transform="matrix(2,0,0,2,-1.3045501e-7,0.01200092)">
  <path style="fill:#80cbc4" d="m 14.095703,9.1933594 c -2.117119,0 -4.042361,0.1271965 -5.6855468,0.5097656 C 4.8219335,9.9106394 2,17 2,17.689453 c 0.0026,1.621482 0.4201319,3.203748 1.1972656,4.537109 1.9408227,4.004272 6.0405744,6.767579 10.7890624,6.767579 6.620184,0 11.988281,-5.366145 11.988281,-11.986329 0,-6.620183 -5.258722,-7.8144526 -11.878906,-7.8144526 z"/>
  <path style="fill:#80cbc4;fill-rule:evenodd" d="m 24.237437,20.474579 c 0,0 5.912377,8.61138 5.280262,9.422421 -0.613835,0.787499 -12.111773,-3.51282 -12.111773,-3.51282 z"/>
 </g>
 <path style="fill:#009688;fill-rule:evenodd" d="m 27.973806,10.054161 c -13.240368,0 -23.9738061,10.733438 -23.9738061,23.973806 0,0.09022 0.01278,0.1772 0.01378,0.267172 -0.00113,0.09452 -0.01378,0.186148 -0.01378,0.280942 0,1.263978 0.102138,2.504826 0.2947146,3.715612 0.061956,0.294078 0.162236,0.54474 0.2451366,0.815282 1.1688988,3.814708 4.2141458,5.348938 4.2141458,5.348938 0.7387904,0.596814 1.6581851,1.205364 2.7185371,1.806848 h -0.08814 c 0,0 2.224113,11.849718 6.301938,11.74924 3.08412,-0.07602 5.504248,-6.123266 9.425364,-6 3.917714,0.12318 5.507586,5.959284 9.406082,6 2.251464,0.02352 4.246276,-2.85815 5.48222,-6 h 1.128208 c 3.70676,3.450506 12.13326,6.692828 15.784516,7.88345 0.0499,-0.02606 0.09058,-0.05514 0.11844,-0.0909 0.893726,-1.146514 -5.41012,-11.564372 -8.901408,-16.63493 1.16455,-2.818838 1.81786,-5.90218 1.81786,-9.141656 0,-13.240368 -10.733438,-23.973806 -23.973806,-23.973806 z"/>
 <circle style="opacity:0.2;fill-rule:evenodd" cx="17" cy="28.012" r="3"/>
 <circle style="fill:#ffffff;fill-rule:evenodd" cx="17" cy="27.012" r="3"/>
 <path style="fill:#ffffff;fill-rule:evenodd;opacity:0.1" d="M 27.974609 10.054688 C 14.734241 10.054688 4 20.786976 4 34.027344 C 4 34.117564 4.0126719 34.20495 4.0136719 34.294922 C 4.0125419 34.389442 4 34.481378 4 34.576172 C 4 34.635371 4.0073656 34.692857 4.0078125 34.751953 C 4.1560485 21.639015 14.826559 11.052734 27.974609 11.052734 C 41.050657 11.052734 51.673689 21.523766 51.935547 34.537109 C 51.939167 34.366985 51.947266 34.198354 51.947266 34.027344 C 51.947266 20.786976 41.214977 10.054688 27.974609 10.054688 z M 50.375 43.535156 C 50.294324 43.747049 50.215262 43.960894 50.128906 44.169922 C 53.138232 48.540504 58.227759 56.869712 59.005859 59.824219 C 59.012986 59.817122 59.025269 59.812364 59.03125 59.804688 C 59.905721 58.682875 53.905103 48.715278 50.375 43.535156 z"/>
</svg>
